!!!COM: Claude Goudimel
!!!OMD: Psalm 68: Que Dieu se monstre seulement
**kern	**kern	**kern	**kern
*part4	*part3	*part2	*part1
*staff4	*staff3	*staff2	*staff1
*clefF4	*clefGv2	*clefG2	*clefG2
*k[f#c#]	*k[f#c#]	*k[f#c#]	*k[f#c#]
!!LO:TX:omd:t=
*M4/4	*M4/4	*M4/4	*M4/4
=1	=1	=1	=1
2D	2D	2A	2d
4BB	4F#	4B	4d
4AA	4A	4c#	4e
=2	=2	=2	=2
4D	4A	4d	4f#
4D	4F#	4A	4d
4BB	4D	4B	4f#
4E	4E	4B	4g
=3	=3	=3	=3
2D	2F#	2d	2a
2r	2r	2r	2r
=4	=4	=4	=4
2D	2F#	2d	2a
4GG	4B	4d	4g
4D	4A	4d	4f#
=5	=5	=5	=5
4AA	4A	4c#	4e
4BB	4F#	4B	4d
4BB	4D	4B	4f#
4E	4E	4B	4g
=6	=6	=6	=6
2D	2F#	2d	2a
2r	2r	2r	2r
=7	=7	=7	=7
2GG	2d	2g	2b
4D	4d	4f#	4a
4E	4B	4e	4g
=8	=8	=8	=8
4BB	4B	4d	4f#
4BB	4F#	2d	4d
2AA	2A	.	2e
.	.	4c#	.
=9	=9	=9	=9
2D	2A	2d	2d
2r	2r	2r	2r
=10	=10	=10	=10
2D	2D	2A	2d
4BB	4F#	4B	4d
4AA	4A	4c#	4e
=11	=11	=11	=11
4D	4A	4d	4f#
4D	4F#	4A	4d
4BB	4D	4B	4f#
4E	4E	4B	4g
=12	=12	=12	=12
2D	2F#	2d	2a
2r	2r	2r	2r
=13	=13	=13	=13
2D	2F#	2d	2a
4GG	4B	4d	4g
4D	4A	4d	4f#
=14	=14	=14	=14
4AA	4A	4c#	4e
4BB	4F#	4B	4d
4BB	4D	4B	4f#
4E	4E	4B	4g
=15	=15	=15	=15
2D	2F#	2d	2a
2r	2r	2r	2r
=16	=16	=16	=16
2GG	2d	2g	2b
4D	4d	4f#	4a
4E	4B	4e	4g
=17	=17	=17	=17
4BB	4B	4d	4f#
4BB	4F#	2d	4d
2AA	2A	.	2e
.	.	4c#	.
=18	=18	=18	=18
2D	2A	2d	2d
2r	2r	2r	2r
=19	=19	=19	=19
2D	2A	2f#	2dd
4BB	4B	4f#	4dd
4D	4A	4f#	4dd
=20	=20	=20	=20
4AA	4A	4e	4cc#
4AA	4e	4a	4a
4E	4e	4a	4b
4E	4e	4g#X	4b
=21	=21	=21	=21
2AA	2e	2a	2a
2r	2r	2r	2r
=22	=22	=22	=22
2D	2A	2f#	2dd
4BB	4B	4f#	4dd
4D	4A	4f#	4dd
=23	=23	=23	=23
4AA	4A	4e	4cc#
4AA	4e	4a	4a
4E	4e	4a	4b
4E	4e	4g#X	4b
=24	=24	=24	=24
2AA	2e	2a	2a
2r	2r	2r	2r
=25	=25	=25	=25
2D	2A	2d	2f#
4GG	4B	4d	4g
4GG	4d	4g	4b
=26	=26	=26	=26
4D	4d	4f#	4a
4D	4d	4f#	4f#
2E	2B	2e	2g
=27	=27	=27	=27
2BB	2B	2e-X	2f#
2r	2r	2r	2r
=28	=28	=28	=28
2E	2B	2en	2e
4BB	4B	4d	4f#
4E	4B	4e	4g
=29	=29	=29	=29
4D	4d	4f#	4a
4E	4B	4e	4g
4BB	4B	4e	4f#
4BB	4B	4e-X	4f#
=30	=30	=30	=30
2E	2B	2en	2e
2r	2r	2r	2r
=31	=31	=31	=31
2D	2F#	2d	2a
4BB	4F#	4d	4b
4AA	4A	4e	4cc#
=32	=32	=32	=32
4D	4A	4f#	4dd
4AA	4A	4e	4cc#
4E	4A	4e	4b
4E	4G#X	4e	4b
=33	=33	=33	=33
2AA	2A	2c#	2a
2r	2r	2r	2r
=34	=34	=34	=34
2D	2F#	2A	2d
4C#	4E	4A	4e
4D	4A	4d	4f#
=35	=35	=35	=35
4GG	4B	4d	4g
4D	4A	2d	4f#
2AA	2A	.	2e
.	.	4c#	.
=36	=36	=36	=36
1D	1A	1d	1d
==	==	==	==
*-	*-	*-	*-
!!!software: music21 v.9.7.1
!!!software: music21 v.8.3.0
!!!RDF**kern: > = above
!!!RDF**kern: < = below
